flaticon/emoticons/alien.svg

<svg xmlns="http://www.w3.org/2000/svg" width="32" height="32" viewBox="0 0 24 24">
    <path d="M 23.917969 11.652344 C 23.757812 10.976562 23.371094 10.390625 22.886719 10.09375 C 22.5625 9.894531 22.214844 9.828125 21.882812 9.910156 C 21.808594 9.925781 21.734375 9.953125 21.664062 9.988281 C 20.777344 7.832031 19.421875 6.394531 18.007812 5.445312 C 18.070312 3.894531 18.949219 2.960938 20.460938 2.84375 C 20.644531 3.523438 21.261719 4.027344 22 4.027344 C 22.882812 4.027344 23.597656 3.3125 23.597656 2.429688 C 23.597656 1.546875 22.882812 0.828125 22 0.828125 C 21.25 0.828125 20.625 1.347656 20.453125 2.042969 C 18.652344 2.164062 17.476562 3.253906 17.246094 4.980469 C 14.699219 3.574219 12.207031 3.5625 12.160156 3.558594 C 12.105469 3.558594 9.421875 3.566406 6.777344 5.144531 C 6.574219 3.253906 5.050781 1.753906 3.148438 1.589844 C 2.976562 0.890625 2.351562 0.371094 1.601562 0.371094 C 0.71875 0.371094 0 1.089844 0 1.972656 C 0 2.855469 0.71875 3.570312 1.601562 3.570312 C 2.335938 3.570312 2.953125 3.070312 3.136719 2.390625 C 4.742188 2.558594 6 3.921875 6 5.570312 C 6 5.597656 6.011719 5.621094 6.015625 5.648438 C 4.207031 6.957031 2.542969 9.082031 1.902344 12.550781 C 1.894531 12.582031 1.890625 12.617188 1.886719 12.648438 C 1.785156 12.621094 1.679688 12.601562 1.574219 12.601562 C 0.691406 12.601562 0 13.554688 0 14.773438 C 0 15.988281 0.691406 16.941406 1.574219 16.941406 C 1.738281 16.941406 1.894531 16.898438 2.046875 16.835938 C 2.328125 17.902344 2.792969 18.90625 3.429688 19.785156 C 4.707031 21.546875 7.21875 23.628906 11.9375 23.628906 C 12.011719 23.628906 12.082031 23.628906 12.15625 23.625 C 17.015625 23.699219 19.585938 21.574219 20.882812 19.785156 C 22.035156 18.199219 22.621094 16.207031 22.574219 14.15625 C 22.589844 14.15625 22.601562 14.160156 22.617188 14.160156 C 22.707031 14.160156 22.796875 14.148438 22.886719 14.128906 C 23.746094 13.925781 24.199219 12.835938 23.917969 11.652344 Z M 22 1.628906 C 22.441406 1.628906 22.800781 1.988281 22.800781 2.429688 C 22.800781 2.871094 22.441406 3.230469 22 3.230469 C 21.558594 3.230469 21.199219 2.871094 21.199219 2.429688 C 21.199219 1.988281 21.558594 1.628906 22 1.628906 Z M 1.601562 2.773438 C 1.160156 2.773438 0.800781 2.414062 0.800781 1.972656 C 0.800781 1.53125 1.160156 1.171875 1.601562 1.171875 C 2.042969 1.171875 2.398438 1.53125 2.398438 1.972656 C 2.398438 2.414062 2.042969 2.773438 1.601562 2.773438 Z M 1.871094 16.023438 C 1.789062 16.089844 1.6875 16.140625 1.574219 16.140625 C 1.207031 16.140625 0.800781 15.578125 0.800781 14.773438 C 0.800781 13.964844 1.207031 13.402344 1.574219 13.402344 C 1.640625 13.402344 1.710938 13.421875 1.777344 13.457031 C 1.757812 13.671875 1.746094 13.882812 1.738281 14.097656 C 1.738281 14.109375 1.738281 14.125 1.738281 14.136719 C 1.734375 14.316406 1.734375 14.492188 1.738281 14.667969 C 1.742188 14.722656 1.742188 14.777344 1.746094 14.832031 C 1.753906 14.976562 1.761719 15.121094 1.777344 15.261719 C 1.78125 15.320312 1.785156 15.375 1.789062 15.429688 C 1.808594 15.605469 1.832031 15.78125 1.859375 15.953125 C 1.863281 15.976562 1.867188 16 1.871094 16.023438 Z M 20.234375 19.316406 C 18.507812 21.695312 15.796875 22.890625 12.160156 22.824219 L 12.152344 22.824219 C 8.511719 22.875 5.804688 21.695312 4.078125 19.316406 C 3.253906 18.179688 2.746094 16.8125 2.585938 15.371094 C 2.582031 15.339844 2.582031 15.308594 2.582031 15.277344 C 2.558594 15.046875 2.542969 14.816406 2.539062 14.585938 C 2.539062 14.484375 2.539062 14.386719 2.539062 14.285156 C 2.542969 14.121094 2.546875 13.957031 2.558594 13.796875 C 2.566406 13.679688 2.574219 13.558594 2.585938 13.441406 C 2.613281 13.191406 2.640625 12.945312 2.6875 12.695312 C 4.203125 4.496094 11.65625 4.359375 12.144531 4.359375 C 12.152344 4.359375 12.15625 4.359375 12.160156 4.359375 C 12.171875 4.363281 14.15625 4.351562 16.308594 5.375 C 18.5625 6.445312 20.144531 8.1875 21.039062 10.566406 L 21.035156 10.566406 L 21.109375 10.773438 C 21.21875 11.078125 21.3125 11.386719 21.398438 11.695312 C 21.402344 11.714844 21.40625 11.734375 21.410156 11.753906 C 21.492188 12.0625 21.566406 12.375 21.625 12.695312 C 21.671875 12.957031 21.707031 13.222656 21.730469 13.484375 C 21.734375 13.535156 21.742188 13.585938 21.746094 13.636719 C 21.914062 15.703125 21.386719 17.730469 20.234375 19.316406 Z M 22.699219 13.351562 C 22.644531 13.363281 22.585938 13.363281 22.523438 13.351562 C 22.523438 13.335938 22.519531 13.324219 22.519531 13.308594 C 22.492188 13.058594 22.457031 12.804688 22.410156 12.550781 C 22.410156 12.550781 22.410156 12.550781 22.410156 12.546875 C 22.410156 12.542969 22.410156 12.539062 22.40625 12.535156 C 22.351562 12.230469 22.285156 11.9375 22.214844 11.652344 C 22.207031 11.625 22.199219 11.597656 22.191406 11.570312 C 22.117188 11.289062 22.039062 11.019531 21.949219 10.757812 C 21.949219 10.753906 21.949219 10.746094 21.945312 10.742188 C 21.988281 10.714844 22.027344 10.695312 22.070312 10.6875 C 22.222656 10.648438 22.371094 10.714844 22.46875 10.773438 C 22.769531 10.960938 23.027344 11.367188 23.140625 11.835938 C 23.324219 12.625 23.058594 13.265625 22.699219 13.351562 Z M 22.699219 13.351562"/>
    <path d="M14 9.628906C14 8.964844 13.195312 8.429688 12.199219 8.429688 11.207031 8.429688 10.398438 8.964844 10.398438 9.628906 10.398438 10.289062 11.207031 10.828125 12.199219 10.828125 13.195312 10.828125 14 10.289062 14 9.628906zM8.800781 12.027344C8.800781 11.367188 7.992188 10.828125 7 10.828125 6.003906 10.828125 5.199219 11.367188 5.199219 12.027344 5.199219 12.691406 6.003906 13.226562 7 13.226562 7.992188 13.226562 8.800781 12.691406 8.800781 12.027344zM8.800781 12.027344"/>
    <path d="M 17.398438 9.226562 C 16.738281 9.226562 16.121094 9.386719 15.597656 9.660156 C 15.597656 9.648438 15.597656 9.636719 15.597656 9.628906 C 15.597656 8.085938 14.074219 6.828125 12.199219 6.828125 C 10.324219 6.828125 8.800781 8.085938 8.800781 9.628906 C 8.800781 9.636719 8.800781 9.648438 8.800781 9.660156 C 8.277344 9.386719 7.664062 9.226562 7 9.226562 C 5.125 9.226562 3.601562 10.484375 3.601562 12.027344 C 3.601562 13.570312 5.125 14.828125 7 14.828125 C 8.875 14.828125 10.398438 13.570312 10.398438 12.027344 C 10.398438 12.019531 10.398438 12.007812 10.398438 12 C 10.921875 12.269531 11.539062 12.429688 12.199219 12.429688 C 12.863281 12.429688 13.476562 12.269531 14 12 C 14 12.007812 14 12.019531 14 12.027344 C 14 13.570312 15.523438 14.828125 17.398438 14.828125 C 19.273438 14.828125 20.800781 13.570312 20.800781 12.027344 C 20.800781 10.484375 19.273438 9.226562 17.398438 9.226562 Z M 7 14.027344 C 5.566406 14.027344 4.398438 13.132812 4.398438 12.027344 C 4.398438 10.925781 5.566406 10.027344 7 10.027344 C 8.433594 10.027344 9.601562 10.925781 9.601562 12.027344 C 9.601562 13.132812 8.433594 14.027344 7 14.027344 Z M 9.601562 9.628906 C 9.601562 8.527344 10.765625 7.628906 12.199219 7.628906 C 13.632812 7.628906 14.800781 8.527344 14.800781 9.628906 C 14.800781 10.730469 13.632812 11.628906 12.199219 11.628906 C 10.765625 11.628906 9.601562 10.730469 9.601562 9.628906 Z M 17.398438 14.027344 C 15.964844 14.027344 14.800781 13.132812 14.800781 12.027344 C 14.800781 10.925781 15.964844 10.027344 17.398438 10.027344 C 18.832031 10.027344 20 10.925781 20 12.027344 C 20 13.132812 18.832031 14.027344 17.398438 14.027344 Z M 17.398438 14.027344"/>
    <path d="M19.199219 12.027344C19.199219 11.367188 18.394531 10.828125 17.398438 10.828125 16.40625 10.828125 15.597656 11.367188 15.597656 12.027344 15.597656 12.691406 16.40625 13.226562 17.398438 13.226562 18.394531 13.226562 19.199219 12.691406 19.199219 12.027344zM17.039062 15.707031C16.863281 15.574219 16.613281 15.613281 16.480469 15.789062 16.347656 15.964844 16.382812 16.214844 16.558594 16.347656L17.125 16.769531C16.613281 17.410156 14.984375 19.242188 12.765625 19.574219 11.359375 19.785156 9.949219 19.351562 8.566406 18.300781L9.039062 17.949219C9.21875 17.816406 9.253906 17.5625 9.121094 17.386719 8.988281 17.210938 8.738281 17.175781 8.558594 17.308594L6.960938 18.507812C6.785156 18.640625 6.746094 18.890625 6.878906 19.066406 6.957031 19.171875 7.078125 19.226562 7.199219 19.226562 7.285156 19.226562 7.367188 19.203125 7.441406 19.148438L7.910156 18.792969C7.925781 18.808594 7.933594 18.828125 7.949219 18.839844 9.285156 19.894531 10.664062 20.425781 12.058594 20.425781 12.335938 20.425781 12.613281 20.40625 12.890625 20.363281 15.429688 19.980469 17.207031 17.964844 17.765625 17.25L18.160156 17.546875C18.230469 17.601562 18.316406 17.628906 18.398438 17.628906 18.519531 17.628906 18.640625 17.570312 18.71875 17.46875 18.851562 17.292969 18.816406 17.039062 18.640625 16.90625zM17.039062 15.707031"/>
</svg>

<svg xmlns="http://www.w3.org/2000/svg" width="32" height="32" viewBox="0 0 24 24">
    <path d="M23.918 11.652c-.16-.675-.547-1.261-1.031-1.558-.325-.2-.672-.266-1.004-.184a.916.916 0 0 0-.219.078c-.887-2.156-2.242-3.593-3.656-4.543.062-1.55.941-2.484 2.453-2.601.184.68.8 1.183 1.539 1.183a1.6 1.6 0 0 0 0-3.2c-.75.001-1.375.52-1.547 1.216-1.8.121-2.976 1.21-3.207 2.937C14.7 3.574 12.207 3.562 12.16 3.56c-.055 0-2.738.007-5.383 1.586A4.005 4.005 0 0 0 3.148 1.59 1.595 1.595 0 0 0 1.602.37a1.6 1.6 0 0 0 0 3.2c.734 0 1.351-.5 1.535-1.18A3.204 3.204 0 0 1 6 5.57c0 .027.012.05.016.077-1.809 1.309-3.473 3.434-4.114 6.903-.007.031-.011.066-.015.097a1.21 1.21 0 0 0-.313-.046c-.883 0-1.574.953-1.574 2.171 0 1.215.691 2.168 1.574 2.168.164 0 .32-.043.473-.105a8.885 8.885 0 0 0 1.383 2.95c1.277 1.76 3.789 3.843 8.508 3.843.074 0 .144 0 .218-.004 4.86.074 7.43-2.05 8.727-3.84 1.152-1.586 1.738-3.578 1.691-5.629.016 0 .028.004.043.004.09 0 .18-.012.27-.031.86-.203 1.312-1.293 1.031-2.477zM22 1.63a.802.802 0 0 1 0 1.601.802.802 0 0 1 0-1.601zM1.602 2.773a.802.802 0 0 1 0-1.601c.441 0 .796.36.796.8 0 .442-.355.801-.796.801zm.27 13.25a.477.477 0 0 1-.298.118c-.367 0-.773-.563-.773-1.368 0-.808.406-1.37.773-1.37a.44.44 0 0 1 .203.054c-.02.215-.03.426-.039.64v.04c-.004.18-.004.355 0 .531.004.055.004.11.008.164.008.145.016.29.031.43l.012.168c.02.175.043.351.07.523l.012.07zm18.362 3.293c-1.726 2.38-4.437 3.575-8.074 3.508h-.008c-3.64.051-6.347-1.129-8.074-3.508-.824-1.136-1.332-2.503-1.492-3.945-.004-.031-.004-.062-.004-.094a8.21 8.21 0 0 1-.043-.691v-.3c.004-.165.008-.329.02-.49a9.769 9.769 0 0 1 .129-1.102c1.515-8.198 8.968-8.335 9.457-8.335h.015c.012.004 1.996-.007 4.149 1.016 2.253 1.07 3.836 2.813 4.73 5.191h-.004l.074.207c.11.305.203.614.29.922l.011.059c.082.309.156.621.215.941.047.262.082.528.105.79.004.05.012.1.016.152.168 2.066-.36 4.093-1.512 5.68zm2.465-5.964a.443.443 0 0 1-.176 0c0-.016-.003-.028-.003-.043-.028-.25-.063-.504-.11-.758v-.004c0-.004 0-.008-.004-.012a14.016 14.016 0 0 0-.191-.883l-.024-.082a11.66 11.66 0 0 0-.242-.812c0-.004 0-.012-.004-.016a.35.35 0 0 1 .125-.055c.153-.039.301.028.399.086.3.188.558.594.672 1.063.183.789-.082 1.43-.442 1.516zm0 0"/>
    <path d="M14 9.629c0-.664-.805-1.2-1.8-1.2-.993 0-1.802.536-1.802 1.2 0 .66.809 1.2 1.801 1.2.996 0 1.801-.54 1.801-1.2zm0 0M8.8 12.027c0-.66-.808-1.199-1.8-1.199-.996 0-1.8.54-1.8 1.2 0 .663.804 1.199 1.8 1.199.992 0 1.8-.536 1.8-1.2zm0 0"/>
    <path d="M17.398 9.227c-.66 0-1.277.16-1.8.433V9.63c0-1.543-1.524-2.8-3.399-2.8s-3.398 1.257-3.398 2.8v.031A3.88 3.88 0 0 0 7 9.227c-1.875 0-3.398 1.257-3.398 2.8S5.125 14.828 7 14.828c1.875 0 3.398-1.258 3.398-2.8V12c.524.27 1.141.43 1.801.43.664 0 1.278-.16 1.801-.43v.027c0 1.543 1.523 2.801 3.398 2.801 1.875 0 3.403-1.258 3.403-2.8 0-1.544-1.528-2.801-3.403-2.801zM7 14.027c-1.434 0-2.602-.894-2.602-2 0-1.101 1.168-2 2.602-2s2.602.899 2.602 2c0 1.106-1.168 2-2.602 2zM9.602 9.63c0-1.102 1.164-2 2.597-2 1.434 0 2.602.898 2.602 2 0 1.101-1.168 2-2.602 2-1.433 0-2.597-.899-2.597-2zm7.796 4.398c-1.433 0-2.597-.894-2.597-2 0-1.101 1.164-2 2.597-2 1.434 0 2.602.899 2.602 2 0 1.106-1.168 2-2.602 2zm0 0"/>
    <path d="M19.2 12.027c0-.66-.805-1.199-1.802-1.199-.992 0-1.8.54-1.8 1.2 0 .663.808 1.199 1.8 1.199.997 0 1.801-.536 1.801-1.2zm0 0M17.04 15.707a.4.4 0 0 0-.56.082.399.399 0 0 0 .079.559l.566.422c-.512.64-2.14 2.472-4.36 2.804-1.406.211-2.816-.222-4.199-1.273l.473-.352a.4.4 0 1 0-.48-.64L6.96 18.508a.4.4 0 1 0 .48.64l.47-.355c.015.016.023.035.038.047 1.336 1.055 2.715 1.586 4.11 1.586.277 0 .554-.02.832-.063 2.539-.383 4.316-2.398 4.875-3.113l.394.297c.07.055.156.082.238.082a.403.403 0 0 0 .242-.723zm0 0"/>
</svg>
